packages/synapse-interface/assets/icons/sdt.svg

<svg fill="none" height="48" viewBox="0 0 48 48" width="48" xmlns="http://www.w3.org/2000/svg" xmlns:xlink="http://www.w3.org/1999/xlink"><clipPath id="a"><path d="m6.5 6.5h35v35h-35z"/></clipPath><rect fill="#000" height="48" rx="24" width="48"/><g clip-path="url(#a)" fill="#fff"><path d="m6.5 26.5154v-.076c.03683-.1063.06579-.2153.08663-.3259.3237-2.8298.64767-5.6591.97188-8.4879.01594-.1741.07724-.341.17781-.484 1.11044-1.4134 2.22949-2.8194 3.35718-4.2181.1038-.1199.2467-.1993.4035-.2242 1.2426-.1484 2.487-.2839 3.7332-.4065.4647-.0399.9156-.178 1.323-.405 1.2675-.712 2.5539-1.3914 3.8275-2.09349.0826-.05371.1785-.08342.2769-.08584.0985-.00241.1957.02257.2809.07216 1.8594.91797 3.7234 1.82367 5.5866 2.73557.12.0593.2355.1277.4559.2454l-1.5198 1.4757c.1079.0289.1763.054.247.0654 1.7356.2766 3.4749.5319 5.2052.8358 1.8769.3275 3.7994.5274 5.481 1.5342 1.2355.7401 2.4316 1.5471 3.6588 2.2994.5798.3549.7986.8739.7599 1.5038-.0631 1.0844-.1436 2.1695-.2629 3.25-.1087.9765-.3557 1.9157-.9879 2.7113-.057.0722-.057.215-.0387.3176.5937 3.3521 1.1894 6.7031 1.7872 10.0532.0866.4924.1276.9931.1892 1.4901h-4.557c.228-.2622.4354-.5448.6839-.7804.209-.1953.2416-.3465.1117-.614-1.2893-2.6499-2.5666-5.3049-3.8321-7.965-.1519-.3131-.3146-.3746-.6405-.3268-1.4377.2113-2.88.3921-4.3207.5836-2.117.2817-4.2343.5633-6.3518.845-.2386.0312-.4058.1087-.5274.3496-1.3333 2.6347-2.6755 5.2692-4.0266 7.9034h-4.6307c.0368-.1307.0854-.2579.1452-.3799.3974-.6618.8077-1.3161 1.2059-1.9757.0933-.1502.1673-.3115.2203-.4802.9965-3.3997 1.9866-6.8012 2.9704-10.2044.0155-.0797.0133-.1619-.0064-.2406-.0197-.0788-.0564-.1523-.1076-.2154-.5532-.5737-1.1246-1.1307-1.7074-1.6717-.0595-.0478-.1281-.0829-.2017-.103-.0736-.0202-.1506-.0249-.2261-.014-1.3868.2865-2.7675.5995-4.1543.886-.2378.0486-.3039.1641-.3328.3746-.1459 1.1687-.304 2.3351-.4461 3.5038-.0136.114 0 .2721.0699.3496.4423.5007.9035.9878 1.3853 1.503l1.6429-1.5767c.1816 1.2294.3503 2.3738.5273 3.5714-.8928.1702-1.7568.3366-2.6231.4962-.0758.0013-.1512-.0121-.2219-.0395-.5159-.1254-1.038-.2325-1.544-.3883-.19712-.0634-.36831-.1889-.48788-.3579-.56763-.8838-1.10335-1.7873-1.65882-2.6794-.44605-.715-.90197-1.4255-1.3579-2.136z"/><path d="m30.2622 38.2936c.2317-.3868.443-.788.7029-1.1542.1985-.2762.2994-.6107.2864-.9506-.0136-1.7706 0-3.5418-.0121-5.3131 0-.2599.076-.4202.2979-.554.4186-.2553.8229-.5319 1.2614-.8214.0843.1277.1519.228.218.3344.7493 1.2606 1.5031 2.5189 2.2379 3.7879.0942.1721.1347.3685.1162.5639-.1474 1.3678-.3161 2.7355-.4779 4.1071z"/><path d="m21.3039 38.2936c.2113-.133.4119-.2895.6368-.3928.2394-.1095.304-.228.2234-.4932-.3039-1.0046-.5884-2.0139-.8533-3.0281-.0481-.1882-.0337-.3869.041-.5661.4103-.8683.8394-1.7275 1.2872-2.5775.0944-.167.2457-.2943.4263-.3587.5654-.1732 1.1452-.3001 1.7774-.4597.0691.3039.1406.5919.1983.8807.4433 2.2188.8845 4.4379 1.3237 6.6573.0155.1121.0242.225.0259.3381z"/></g></svg>

<svg width="48" height="48" viewBox="0 0 48 48" fill="none" xmlns="http://www.w3.org/2000/svg">
<rect width="48" height="48" rx="24" fill="black"/>
<g clip-path="url(#clip0_1275_22753)">
<path d="M6.5 26.5154V26.4394C6.53683 26.3331 6.56579 26.2241 6.58663 26.1135C6.91033 23.2837 7.2343 20.4544 7.55851 17.6256C7.57445 17.4515 7.63575 17.2846 7.73632 17.1416C8.84676 15.7282 9.96581 14.3222 11.0935 12.9235C11.1973 12.8036 11.3402 12.7242 11.497 12.6993C12.7396 12.5509 13.984 12.4154 15.2302 12.2928C15.6949 12.2529 16.1458 12.1148 16.5532 11.8878C17.8207 11.1758 19.1071 10.4964 20.3807 9.79431C20.4633 9.7406 20.5592 9.71089 20.6576 9.70847C20.7561 9.70606 20.8533 9.73104 20.9385 9.78063C22.7979 10.6986 24.6619 11.6043 26.5251 12.5162C26.6451 12.5755 26.7606 12.6439 26.981 12.7616L25.4612 14.2373C25.5691 14.2662 25.6375 14.2913 25.7082 14.3027C27.4438 14.5793 29.1831 14.8346 30.9134 15.1385C32.7903 15.466 34.7128 15.6659 36.3944 16.6727C37.6299 17.4128 38.826 18.2198 40.0532 18.9721C40.633 19.327 40.8518 19.846 40.8131 20.4759C40.75 21.5603 40.6695 22.6454 40.5502 23.7259C40.4415 24.7024 40.1945 25.6416 39.5623 26.4372C39.5053 26.5094 39.5053 26.6522 39.5236 26.7548C40.1173 30.1069 40.713 33.4579 41.3108 36.808C41.3974 37.3004 41.4384 37.8011 41.5 38.2981H36.943C37.171 38.0359 37.3784 37.7533 37.6269 37.5177C37.8359 37.3224 37.8685 37.1712 37.7386 36.9037C36.4493 34.2538 35.172 31.5988 33.9065 28.9387C33.7546 28.6256 33.5919 28.5641 33.266 28.6119C31.8283 28.8232 30.386 29.004 28.9453 29.1955C26.8283 29.4772 24.711 29.7588 22.5935 30.0405C22.3549 30.0717 22.1877 30.1492 22.0661 30.3901C20.7328 33.0248 19.3906 35.6593 18.0395 38.2935H13.4088C13.4456 38.1628 13.4942 38.0356 13.554 37.9136C13.9514 37.2518 14.3617 36.5975 14.7599 35.9379C14.8532 35.7877 14.9272 35.6264 14.9802 35.4577C15.9767 32.058 16.9668 28.6565 17.9506 25.2533C17.9661 25.1736 17.9639 25.0914 17.9442 25.0127C17.9245 24.9339 17.8878 24.8604 17.8366 24.7973C17.2834 24.2236 16.712 23.6666 16.1292 23.1256C16.0697 23.0778 16.0011 23.0427 15.9275 23.0226C15.8539 23.0024 15.7769 22.9977 15.7014 23.0086C14.3146 23.2951 12.9339 23.6081 11.5471 23.8946C11.3093 23.9432 11.2432 24.0587 11.2143 24.2692C11.0684 25.4379 10.9103 26.6043 10.7682 27.773C10.7546 27.887 10.7682 28.0451 10.8381 28.1226C11.2804 28.6233 11.7416 29.1104 12.2234 29.6256L13.8663 28.0489C14.0479 29.2783 14.2166 30.4227 14.3936 31.6203C13.5008 31.7905 12.6368 31.9569 11.7705 32.1165C11.6947 32.1178 11.6193 32.1044 11.5486 32.077C11.0327 31.9516 10.5106 31.8445 10.0046 31.6887C9.80748 31.6253 9.63629 31.4998 9.51672 31.3308C8.94909 30.447 8.41337 29.5435 7.8579 28.6514C7.41185 27.9364 6.95593 27.2259 6.5 26.5154Z" fill="white"/>
<path d="M30.2622 38.2936C30.4939 37.9068 30.7052 37.5056 30.9651 37.1394C31.1636 36.8632 31.2645 36.5287 31.2515 36.1888C31.2379 34.4182 31.2515 32.647 31.2394 30.8757C31.2394 30.6158 31.3154 30.4555 31.5373 30.3217C31.9559 30.0664 32.3602 29.7898 32.7987 29.5003C32.883 29.628 32.9506 29.7283 33.0167 29.8347C33.766 31.0953 34.5198 32.3536 35.2546 33.6226C35.3488 33.7947 35.3893 33.9911 35.3708 34.1865C35.2234 35.5543 35.0547 36.922 34.8929 38.2936H30.2622Z" fill="white"/>
<path d="M21.3039 38.2936C21.5152 38.1606 21.7158 38.0041 21.9407 37.9008C22.1801 37.7913 22.2447 37.6728 22.1641 37.4076C21.8602 36.403 21.5757 35.3937 21.3108 34.3795C21.2627 34.1913 21.2771 33.9926 21.3518 33.8134C21.7621 32.9451 22.1912 32.0859 22.639 31.2359C22.7334 31.0689 22.8847 30.9416 23.0653 30.8772C23.6307 30.704 24.2105 30.5771 24.8427 30.4175C24.9118 30.7214 24.9833 31.0094 25.041 31.2982C25.4843 33.517 25.9255 35.7361 26.3647 37.9555C26.3802 38.0676 26.3889 38.1805 26.3906 38.2936H21.3039Z" fill="white"/>
</g>
<defs>
<clipPath id="clip0_1275_22753">
<rect width="35" height="35" fill="white" transform="translate(6.5 6.5)"/>
</clipPath>
</defs>
</svg>
